X: 385
T:The Peverill Lasses
M:4/4
L:1/8
Q:190
C:Jean Duval
R:reel
Z:bil
K:Bm
F2fe dcBA|G2BG DGBG|F2fe dcBA|Acec aecA|F2fe dcBA|G2BG DGBG|F2fe dcBA|Ac
Bd cedc|:d2 dc defd|e2 ed egfe|dAFA DAFA|GFEF GABc|d2 dc defd|e2 ed
efga|bfde fdGB|decA B4:|: FBdB FBdB|GBdB GBdB|FBdB FBdB|AcBd cedB|1FBdB
FBdB|GBdB GBdf|bfde fdGB|d ecA
B4:|2 FdBF dFBd|GdBG dGBd|bfde fdGB|decA B4||
<end>
<start>
